tests/test_lut.cube
# LUT by aaaa
LUT_3D_SIZE 5
DOMAIN_MIN 0.000000 0.000000 0.000000
DOMAIN_MAX 0.903226 0.903226 0.903226
0.039072 0.054701 0.058608
0.089826 0.067919 0.069377
0.185151 0.089448 0.079003
0.329702 0.119729 0.092891
0.521612 0.169404 0.129324
0.046611 0.088913 0.074922
0.158292 0.123739 0.088121
0.311352 0.171335 0.103083
0.478205 0.234144 0.124924
0.643218 0.316113 0.161248
0.055260 0.146796 0.092678
0.172235 0.222563 0.126998
0.408352 0.276073 0.145602
0.579442 0.351025 0.171791
0.704928 0.427190 0.204274
0.075206 0.228178 0.118894
0.206463 0.351538 0.183931
0.414259 0.450224 0.243156
0.635716 0.502128 0.272734
0.742863 0.561933 0.308781
0.109480 0.322817 0.153696
0.280466 0.502589 0.265190
0.479168 0.616597 0.355108
0.660091 0.687678 0.432511
0.767256 0.720041 0.475937
0.041609 0.062066 0.104021
0.114784 0.088087 0.118856
0.264910 0.126891 0.135717
0.431840 0.173986 0.163060
0.588256 0.232495 0.209631
0.047804 0.125220 0.166351
0.182406 0.198916 0.199711
0.375113 0.258155 0.226555
0.548359 0.328014 0.266035
0.691487 0.414616 0.321108
0.062690 0.208296 0.215593
0.226813 0.328380 0.260920
0.450395 0.400972 0.303598
0.637454 0.469789 0.351153
0.757974 0.550946 0.416566
0.091913 0.321870 0.260283
0.294737 0.464738 0.325603
0.492853 0.561091 0.399257
0.689614 0.619419 0.459019
0.801098 0.675964 0.530200
0.145599 0.465023 0.327781
0.380316 0.591899 0.397341
0.576128 0.694061 0.496766
0.730715 0.760376 0.587550
0.833785 0.800416 0.660445
0.046382 0.080618 0.166655
0.116460 0.115717 0.204169
0.288053 0.183595 0.252714
0.511497 0.266439 0.288020
0.672076 0.362731 0.356187
0.054413 0.167715 0.265669
0.186871 0.257411 0.327536
0.402308 0.341662 0.371946
0.613225 0.429058 0.412476
0.746274 0.523394 0.477135
0.069459 0.271365 0.361643
0.245900 0.397540 0.432192
0.488894 0.497908 0.473972
0.683897 0.565275 0.514784
0.797031 0.641516 0.571726
0.097773 0.392730 0.430440
0.332922 0.543434 0.500270
0.565045 0.647804 0.549331
0.731331 0.702614 0.607944
0.838089 0.752679 0.669961
0.149016 0.533813 0.495534
0.441768 0.672531 0.564798
0.657463 0.756128 0.618021
0.788424 0.812991 0.699729
0.872652 0.848457 0.763962
0.050833 0.113593 0.249533
0.124900 0.158087 0.299573
0.307935 0.248546 0.374698
0.550532 0.377862 0.455329
0.742341 0.509768 0.526284
0.060962 0.221473 0.371013
0.202292 0.332086 0.451072
0.420918 0.434384 0.516209
0.649259 0.537091 0.569440
0.799366 0.641653 0.629563
0.081372 0.340853 0.472430
0.275722 0.474175 0.557253
0.508272 0.583005 0.621303
0.717953 0.663788 0.662842
0.839428 0.738125 0.708886
0.131225 0.472367 0.558858
0.376757 0.605114 0.636705
0.603681 0.705344 0.696273
0.770116 0.766107 0.733921
0.869672 0.809665 0.770467
0.207724 0.609397 0.629165
0.501582 0.726814 0.696724
0.714336 0.806860 0.749387
0.833855 0.854673 0.790040
0.899664 0.882700 0.834066
0.055796 0.196416 0.394951
0.134003 0.268172 0.457459
0.340845 0.389955 0.541450
0.601277 0.519244 0.612019
0.786379 0.631862 0.667706
0.066712 0.296441 0.487305
0.242323 0.442001 0.583170
0.461835 0.556505 0.652223
0.685775 0.660342 0.708444
0.837467 0.744159 0.752562
0.091030 0.411301 0.568140
0.332682 0.561688 0.658202
0.568288 0.678695 0.730089
0.755475 0.760560 0.777062
0.876104 0.823421 0.815356
0.160851 0.541671 0.638691
0.448255 0.674407 0.717870
0.673412 0.770874 0.782239
0.811955 0.830775 0.825529
0.901381 0.874040 0.857002
0.290112 0.678251 0.701895
0.590299 0.775838 0.768265
0.779291 0.846018 0.824314
0.874395 0.887394 0.862698
0.921549 0.910620 0.887670
