tests/test_lut.cube
# LUT by aaaa
LUT_3D_SIZE 8
DOMAIN_MIN 0.000000 0.000000 0.000000
DOMAIN_MAX 0.903226 0.903226 0.903226
0.039072 0.054701 0.058608
0.061349 0.060877 0.065005
0.099972 0.070401 0.070810
0.153555 0.082579 0.076198
0.222206 0.097168 0.082091
0.306652 0.114877 0.090409
0.407042 0.137768 0.104431
0.521612 0.169404 0.129324
0.043704 0.070361 0.068092
0.090685 0.082713 0.073094
0.147252 0.100191 0.079996
0.219376 0.121790 0.087561
0.304115 0.147493 0.096250
0.398295 0.177980 0.107557
0.499112 0.215159 0.123734
0.603080 0.262576 0.148470
0.047548 0.095474 0.077183
0.093263 0.118805 0.087016
0.192944 0.138241 0.092980
0.283610 0.167418 0.101795
0.375777 0.201827 0.112804
0.471686 0.239985 0.126057
0.566450 0.283065 0.142885
0.655433 0.333050 0.165419
0.052164 0.128134 0.087093
0.098348 0.165054 0.103443
0.197305 0.198525 0.117272
0.328349 0.224795 0.124575
0.437942 0.261656 0.135884
0.531309 0.305017 0.151048
0.617213 0.349459 0.168357
0.690640 0.395271 0.188231
0.059561 0.168081 0.099185
0.110648 0.220092 0.123390
0.202709 0.269982 0.147666
0.336132 0.307994 0.164844
0.473430 0.338810 0.175276
0.579615 0.377635 0.189536
0.656661 0.421998 0.208546
0.716596 0.461923 0.227160
0.071566 0.215440 0.114593
0.131646 0.283901 0.148873
0.223477 0.347954 0.183529
0.344337 0.402404 0.215082
0.483662 0.439635 0.236294
0.604837 0.470072 0.251282
0.687640 0.505030 0.269157
0.737913 0.540556 0.289910
0.088889 0.268951 0.133436
0.162423 0.357136 0.181754
0.258841 0.432265 0.226738
0.374328 0.496347 0.270080
0.497864 0.546588 0.308381
0.616074 0.578687 0.334680
0.705184 0.603596 0.354274
0.755323 0.629923 0.375522
0.109480 0.322817 0.153696
0.202126 0.438693 0.222919
0.307071 0.522609 0.278744
0.421564 0.588244 0.330188
0.535434 0.640461 0.379264
0.636830 0.679533 0.422607
0.716472 0.703802 0.453572
0.767256 0.720041 0.475937
0.039954 0.057127 0.082209
0.070400 0.067885 0.084023
0.126618 0.081991 0.090761
0.198145 0.099065 0.099465
0.279526 0.118364 0.109683
0.367728 0.139744 0.122356
0.460541 0.164236 0.139544
0.555544 0.193880 0.164508
0.042196 0.085338 0.108229
0.097345 0.113789 0.118186
0.173114 0.134673 0.128326
0.259185 0.158892 0.140364
0.350098 0.187512 0.154702
0.442868 0.220771 0.172317
0.536088 0.260110 0.194585
0.629049 0.308247 0.223120
0.047918 0.117133 0.127273
0.110155 0.163097 0.139870
0.210597 0.192263 0.154284
0.314139 0.222451 0.168590
0.415502 0.257249 0.185890
0.512132 0.296867 0.207451
0.601931 0.342035 0.233838
0.683831 0.394591 0.265734
0.056177 0.159370 0.144469
0.127393 0.220621 0.162670
0.225359 0.262637 0.185493
0.355057 0.295033 0.202684
0.470992 0.331249 0.222080
0.568735 0.372928 0.246810
0.653002 0.418781 0.276778
0.722816 0.468760 0.311465
0.067964 0.211227 0.162658
0.151382 0.284568 0.189023
0.245152 0.338929 0.221196
0.371544 0.381596 0.248899
0.505371 0.415868 0.270651
0.613307 0.453190 0.296228
0.692139 0.495990 0.329030
0.751992 0.539946 0.366099
0.085348 0.272389 0.184869
0.181925 0.352977 0.219381
0.277700 0.417119 0.260809
0.391999 0.471369 0.301070
0.522060 0.511746 0.333525
0.638689 0.544335 0.361457
0.722257 0.578355 0.393904
0.775613 0.614851 0.433265
0.110220 0.343510 0.214519
0.218066 0.423874 0.253442
0.320644 0.495767 0.304718
0.430900 0.556869 0.355391
0.544944 0.605962 0.401893
0.654783 0.640670 0.439700
0.741251 0.668016 0.473936
0.795161 0.695124 0.512694
0.143306 0.423631 0.254090
0.256895 0.492459 0.289188
0.370597 0.572538 0.352133
0.482401 0.636594 0.411672
0.587895 0.686329 0.466756
0.681107 0.724745 0.517252
0.757061 0.752150 0.559801
0.811018 0.772611 0.598177
0.042215 0.063886 0.111521
0.069800 0.077269 0.121916
0.131475 0.096383 0.132267
0.223626 0.120321 0.141516
0.323650 0.147126 0.153837
0.421429 0.176421 0.171169
0.513950 0.208994 0.194528
0.599564 0.246492 0.225713
0.045090 0.099846 0.150519
0.096575 0.131995 0.170239
0.179464 0.161473 0.185117
0.285985 0.193587 0.198536
0.393043 0.229239 0.215435
0.491988 0.268389 0.237345
0.581788 0.311708 0.264823
0.662777 0.360818 0.298474
0.049521 0.141142 0.191683
0.110625 0.191201 0.217698
0.221165 0.237178 0.235100
0.339638 0.272438 0.250409
0.450417 0.309203 0.269444
0.548946 0.350798 0.293772
0.634877 0.397213 0.323208
0.709656 0.449454 0.356823
0.057649 0.189283 0.223368
0.131202 0.256636 0.250897
0.248801 0.316915 0.271830
0.376735 0.355471 0.293110
0.496726 0.391812 0.315626
0.599141 0.432997 0.342728
0.681917 0.478701 0.375786
0.747595 0.528401 0.413019
0.069608 0.247238 0.250216
0.160949 0.328660 0.281419
0.282071 0.397841 0.307488
0.403656 0.444458 0.338355
0.530013 0.479873 0.365928
0.638806 0.516305 0.395432
0.719430 0.557352 0.431494
0.777493 0.601051 0.472591
0.086806 0.314403 0.277220
0.198912 0.404702 0.314230
0.325096 0.477081 0.346110
0.438016 0.531080 0.386850
0.555684 0.571176 0.424511
0.665269 0.603858 0.457793
0.747993 0.636403 0.494380
0.801761 0.671529 0.537736
0.111254 0.390746 0.309433
0.243708 0.482247 0.350499
0.374313 0.552325 0.386894
0.484863 0.609513 0.436347
0.588947 0.655619 0.485569
0.688228 0.689780 0.527305
0.768802 0.716879 0.565883
0.822273 0.742795 0.608244
0.145081 0.476920 0.352255
0.293025 0.558282 0.390622
0.425132 0.620166 0.427652
0.537733 0.677930 0.485252
0.636066 0.725038 0.542799
0.720517 0.761206 0.594052
0.789572 0.788221 0.638414
0.840816 0.809038 0.679567
0.044988 0.074284 0.147064
0.070738 0.089276 0.163862
0.131910 0.113364 0.183895
0.228494 0.147601 0.206149
0.348486 0.185785 0.222066
0.465014 0.226344 0.240852
0.564738 0.270789 0.269765
0.648132 0.321371 0.309696
0.048702 0.117572 0.197830
0.096887 0.153694 0.226254
0.181263 0.189928 0.250636
0.293701 0.230576 0.271969
0.418594 0.275192 0.290641
0.532253 0.322376 0.313746
0.625167 0.372332 0.345260
0.700238 0.426421 0.384773
0.053541 0.167328 0.250750
0.112862 0.220282 0.286645
0.223121 0.273544 0.313744
0.348260 0.317868 0.335186
0.474639 0.361600 0.354535
0.584439 0.408134 0.378581
0.671234 0.457774 0.410052
0.739427 0.510771 0.447219
0.061589 0.222689 0.300384
0.135165 0.290072 0.338945
0.256440 0.355083 0.368706
0.392242 0.405498 0.390523
0.521696 0.446487 0.410360
0.628888 0.488073 0.435087
0.710323 0.533648 0.466598
0.771351 0.581856 0.502127
0.073001 0.284457 0.341065
0.167224 0.366002 0.380106
0.296036 0.439066 0.410926
0.430735 0.496100 0.435810
0.555924 0.534913 0.461012
0.662688 0.570089 0.489097
0.743766 0.609388 0.522253
0.799170 0.650989 0.559866
0.089300 0.353803 0.375195
0.208876 0.445985 0.416197
0.346239 0.522090 0.448590
0.476002 0.581592 0.477978
0.588991 0.622286 0.511870
0.689591 0.653554 0.545416
0.770119 0.684436 0.580189
0.822969 0.717298 0.619864
0.112452 0.430734 0.408947
0.258670 0.526431 0.452607
0.403944 0.599320 0.486805
0.529744 0.655922 0.520363
0.630980 0.698899 0.562650
0.718804 0.730642 0.604011
0.792100 0.756217 0.641449
0.843270 0.780267 0.680387
0.144828 0.515069 0.449145
0.314187 0.604163 0.491598
0.463681 0.667196 0.524600
0.584583 0.717103 0.560609
0.679733 0.758847 0.609624
0.755898 0.792049 0.659138
0.817011 0.817049 0.700910
0.863039 0.836519 0.738741
0.047706 0.088227 0.188160
0.073341 0.104208 0.208445
0.135194 0.132843 0.236989
0.233532 0.175402 0.271197
0.359229 0.228929 0.304537
0.492318 0.285061 0.330477
0.607881 0.342754 0.360114
0.694588 0.406510 0.405950
0.052081 0.139292 0.250211
0.099387 0.181538 0.285978
0.185303 0.223562 0.318154
0.299554 0.271502 0.348791
0.430463 0.324749 0.376534
0.558003 0.381141 0.402243
0.662238 0.439398 0.433842
0.737412 0.499942 0.477058
0.057880 0.196450 0.309943
0.118611 0.254363 0.352831
0.227081 0.312468 0.388958
0.353912 0.364277 0.418629
0.487458 0.414941 0.443263
0.609488 0.467497 0.467472
0.704314 0.521677 0.497920
0.770360 0.576623 0.537083
0.066941 0.258592 0.367418
0.144107 0.327952 0.413268
0.264306 0.395139 0.451955
0.400802 0.452497 0.480401
0.535323 0.500240 0.503204
0.651448 0.545623 0.525787
0.738324 0.592442 0.553881
0.797017 0.639985 0.588546
0.081625 0.325454 0.419187
0.179569 0.404095 0.464827
0.308554 0.476220 0.503522
0.446754 0.537236 0.532062
0.575545 0.582529 0.555098
0.685796 0.620017 0.577468
0.767844 0.657803 0.604471
0.820452 0.697053 0.636685
0.100452 0.396619 0.462881
0.224310 0.483743 0.507724
0.363447 0.558293 0.545235
0.499357 0.619344 0.574093
0.617125 0.663925 0.599777
0.715248 0.695849 0.625971
0.791262 0.724422 0.655041
0.842009 0.754668 0.687262
0.125372 0.472734 0.500562
0.277599 0.563914 0.545297
0.427194 0.636581 0.581895
0.559573 0.693196 0.610897
0.665611 0.735877 0.640163
0.748172 0.765878 0.672882
0.813460 0.789043 0.706156
0.861415 0.810986 0.738663
0.160524 0.554280 0.538470
0.337750 0.639719 0.581374
0.494762 0.704289 0.616411
0.621188 0.752178 0.644835
0.716677 0.789745 0.676905
0.787409 0.819169 0.715559
0.840826 0.841457 0.753187
0.881015 0.858873 0.785577
0.050226 0.107858 0.236465
0.076147 0.125660 0.259226
0.140927 0.159572 0.293956
0.243762 0.208941 0.335488
0.372308 0.272596 0.381305
0.511255 0.343959 0.422301
0.638271 0.416323 0.458310
0.733680 0.489763 0.502642
0.055086 0.165981 0.307395
0.104990 0.217400 0.349956
0.193117 0.264939 0.386854
0.309977 0.318971 0.424171
0.442308 0.378687 0.460374
0.575497 0.442098 0.492846
0.689487 0.507359 0.525641
0.770312 0.573047 0.567202
0.061826 0.229104 0.371356
0.128134 0.294293 0.419459
0.237310 0.358059 0.461673
0.364836 0.415730 0.497634
0.499197 0.471885 0.528780
0.626838 0.528190 0.556130
0.729972 0.585244 0.585247
0.799371 0.642006 0.622234
0.072263 0.296097 0.429573
0.157903 0.370270 0.479501
0.279842 0.440970 0.523724
0.412991 0.502105 0.559464
0.546786 0.555323 0.588079
0.668322 0.604112 0.611943
0.762263 0.651957 0.637334
0.822907 0.699108 0.669241
0.090784 0.367270 0.483738
0.197927 0.446179 0.533052
0.329334 0.518461 0.576877
0.463955 0.580197 0.612246
0.591069 0.629955 0.638501
0.703513 0.671038 0.659777
0.789109 0.709087 0.682197
0.842672 0.746370 0.709160
0.117733 0.441724 0.532340
0.248599 0.523130 0.579402
0.388569 0.594495 0.620973
0.521588 0.654041 0.654957
0.638942 0.700544 0.680104
0.736496 0.734856 0.701411
0.811293 0.763167 0.723249
0.860776 0.790662 0.747415
0.151847 0.518436 0.574461
0.308042 0.600311 0.619073
0.456686 0.668444 0.657809
0.586472 0.723141 0.689829
0.692682 0.765208 0.714803
0.773448 0.795089 0.738357
0.834098 0.816968 0.762652
0.877805 0.836255 0.787137
0.196361 0.597961 0.612763
0.374345 0.673514 0.653853
0.529626 0.734198 0.689744
0.654330 0.781053 0.719732
0.747645 0.816375 0.744190
0.814241 0.843236 0.770230
0.861587 0.863109 0.798453
0.896170 0.878165 0.824947
0.052755 0.139809 0.299697
0.078505 0.161865 0.325404
0.147250 0.203908 0.365360
0.256994 0.261458 0.411425
0.392640 0.330116 0.459029
0.533952 0.407281 0.507065
0.663263 0.486381 0.549366
0.762443 0.562888 0.590701
0.057921 0.200792 0.371232
0.115398 0.265830 0.421559
0.205347 0.318818 0.460968
0.325157 0.378455 0.501781
0.460289 0.442613 0.541403
0.594213 0.508325 0.578170
0.711240 0.574282 0.611771
0.796410 0.639041 0.648410
0.065418 0.266769 0.434337
0.142636 0.342086 0.487095
0.256307 0.412814 0.533673
0.383983 0.475112 0.572642
0.517431 0.535029 0.607511
0.644415 0.592608 0.638233
0.750632 0.648282 0.666374
0.824189 0.702291 0.698192
0.077052 0.335436 0.489700
0.176552 0.416569 0.542181
0.305156 0.491939 0.589788
0.436524 0.556530 0.629429
0.566569 0.612877 0.661845
0.686085 0.663227 0.688628
0.782456 0.709929 0.712896
0.846564 0.753885 0.739999
0.098361 0.407816 0.539683
0.221294 0.490980 0.590549
0.360021 0.565263 0.636556
0.492816 0.628278 0.675568
0.613105 0.679596 0.706485
0.721129 0.722870 0.730835
0.808148 0.761173 0.751996
0.864580 0.795776 0.774757
0.134310 0.484608 0.586161
0.279115 0.564739 0.633845
0.423962 0.634611 0.677159
0.554647 0.692807 0.714176
0.664599 0.738701 0.743643
0.756513 0.774542 0.765959
0.829992 0.803920 0.784481
0.879692 0.829696 0.803606
0.182535 0.562859 0.628397
0.347666 0.637522 0.672387
0.496236 0.700900 0.712329
0.621435 0.752557 0.746675
0.720917 0.792679 0.774405
0.796337 0.822278 0.795431
0.852949 0.844152 0.813256
0.893304 0.861973 0.831014
0.244098 0.641593 0.666717
0.424013 0.706953 0.705937
0.573750 0.761603 0.742198
0.691091 0.805306 0.773622
0.777480 0.838686 0.799488
0.838149 0.863688 0.820184
0.879670 0.881641 0.839422
0.909005 0.894682 0.858579
0.055796 0.196416 0.394951
0.080663 0.227210 0.424457
0.153710 0.282818 0.469064
0.272057 0.352870 0.517769
0.417240 0.427931 0.563361
0.565195 0.501360 0.602926
0.693612 0.570253 0.637006
0.786379 0.631862 0.667706
0.060876 0.250227 0.448840
0.132830 0.334683 0.509136
0.223574 0.393705 0.549106
0.345407 0.459167 0.590550
0.483853 0.527107 0.630003
0.619050 0.591163 0.663903
0.734436 0.649070 0.692281
0.817201 0.700812 0.719051
0.068770 0.312170 0.500017
0.163615 0.401406 0.558689
0.287825 0.481259 0.608952
0.413926 0.546247 0.647699
0.544355 0.607375 0.682504
0.667869 0.664237 0.713260
0.771136 0.714209 0.738942
0.844064 0.758143 0.763455
0.081441 0.377426 0.546341
0.200393 0.467630 0.601412
0.342329 0.549405 0.651557
0.475278 0.617088 0.692700
0.599306 0.673871 0.725520
0.711037 0.723548 0.753197
0.802780 0.766681 0.777026
0.866391 0.803848 0.799667
0.105385 0.446848 0.588600
0.249205 0.535992 0.640619
0.400850 0.613343 0.687594
0.536637 0.678017 0.728195
0.650626 0.729611 0.760636
0.748718 0.772393 0.786422
0.829087 0.808732 0.807992
0.884200 0.839605 0.828503
0.147714 0.522085 0.628783
0.312945 0.605217 0.676844
0.468705 0.675851 0.720573
0.600946 0.733542 0.758504
0.704409 0.778727 0.789661
0.785774 0.813941 0.814040
0.851091 0.842905 0.833699
0.898264 0.867781 0.851758
0.210064 0.600806 0.666815
0.391158 0.673606 0.710364
0.545021 0.734896 0.750650
0.667738 0.784285 0.785760
0.759592 0.822435 0.814719
0.825010 0.850551 0.837560
0.873302 0.872068 0.855432
0.909545 0.890004 0.870582
0.290112 0.678251 0.701895
0.478803 0.737779 0.740582
0.625796 0.788158 0.777419
0.735186 0.828768 0.809831
0.812338 0.859899 0.836726
0.864129 0.882647 0.858031
0.897955 0.898752 0.874403
0.921549 0.910620 0.887670
