tests/test_lut.cube
# LUT by aaaa
LUT_3D_SIZE 32
0.039072 0.054701 0.058608
0.044641 0.056245 0.060207
0.050211 0.057789 0.061806
0.025780 0.052333 0.062405
0.061349 0.060877 0.065005
0.069534 0.062956 0.066509
0.079680 0.065438 0.067943
0.089826 0.067919 0.069377
0.099972 0.070401 0.070810
0.110709 0.072984 0.072228
0.124991 0.076183 0.073552
0.139273 0.079381 0.074875
0.153555 0.082579 0.076198
0.167836 0.085777 0.077522
0.185151 0.089448 0.079003
0.203679 0.093308 0.080547
0.222206 0.097168 0.082091
0.240734 0.101028 0.083635
0.260554 0.105172 0.085446
0.283603 0.110024 0.087928
0.306652 0.114877 0.090409
0.329702 0.119729 0.092891
0.352751 0.124582 0.095372
0.379582 0.131041 0.099744
0.407042 0.137768 0.104431
0.434503 0.144496 0.109118
0.461964 0.151223 0.113805
0.490842 0.159368 0.120336
0.521612 0.169404 0.129324
0.552381 0.179440 0.138312
0.583150 0.189476 0.147300
0.613919 0.199512 0.156288
0.040230 0.058616 0.060979
0.047343 0.060546 0.062491
0.054457 0.062476 0.064003
0.061570 0.064406 0.065515
0.068683 0.066336 0.067027
0.078142 0.068873 0.068544
0.089358 0.071864 0.070065
0.130575 0.054856 0.071986
0.111792 0.077848 0.073107
0.123616 0.080957 0.074621
0.139081 0.084765 0.076093
0.154545 0.088574 0.077566
0.170010 0.092382 0.079039
0.185475 0.096190 0.080512
0.203785 0.100560 0.082169
0.223235 0.105155 0.083900
0.242684 0.109749 0.085630
0.262133 0.114344 0.087361
0.282717 0.119254 0.089360
0.306140 0.124953 0.092028
0.329563 0.130652 0.094696
0.352986 0.136352 0.097364
0.376409 0.142051 0.100032
0.402973 0.149442 0.104495
0.430060 0.157116 0.109257
0.457147 0.164790 0.114019
0.484234 0.172463 0.118780
0.512392 0.181603 0.125284
0.541979 0.192697 0.134110
0.571565 0.203791 0.142937
0.601151 0.214886 0.151763
0.630738 0.225980 0.160589
0.041388 0.062531 0.063350
0.050045 0.064847 0.064775
0.058703 0.067163 0.066200
0.067360 0.069479 0.067625
0.076017 0.071795 0.069049
0.086749 0.074789 0.070579
0.099037 0.078291 0.072187
0.111325 0.081794 0.073795
0.123612 0.085296 0.075403
0.136523 0.088929 0.077013
0.153170 0.093348 0.078635
0.169818 0.097766 0.080258
0.186466 0.102185 0.081880
0.203113 0.106603 0.083502
0.222420 0.111672 0.085335
0.242790 0.117001 0.087253
0.263161 0.122331 0.089170
0.283531 0.127660 0.091088
0.304881 0.133337 0.093273
0.328677 0.139883 0.096128
0.352474 0.146428 0.098983
0.376270 0.152974 0.101838
0.400067 0.159520 0.104693
0.426363 0.167844 0.109246
0.453077 0.176464 0.114083
0.479791 0.185084 0.118919
0.506504 0.193704 0.123756
0.533942 0.203838 0.130233
0.562346 0.215990 0.138897
0.590749 0.228143 0.147561
0.619153 0.240295 0.156226
0.647556 0.252448 0.164890
0.042546 0.066446 0.065721
0.052747 0.069148 0.067059
0.062949 0.071850 0.068397
0.073150 0.074552 0.069734
0.083351 0.077254 0.071072
0.095357 0.080705 0.072614
0.108715 0.084718 0.074309
0.122074 0.088731 0.076004
0.135432 0.092744 0.077699
0.149430 0.096902 0.079405
0.167260 0.101930 0.081177
0.185091 0.106959 0.082949
0.202921 0.111988 0.084720
0.220751 0.117016 0.086492
0.241054 0.122784 0.088501
0.262346 0.128848 0.090606
0.283638 0.134912 0.092710
0.304930 0.140976 0.094814
0.327044 0.147419 0.097186
0.351214 0.154812 0.100228
0.375384 0.162204 0.103270
0.399554 0.169597 0.106311
0.423724 0.176990 0.109353
0.449754 0.186245 0.113997
0.476094 0.195811 0.118908
0.502435 0.205378 0.123820
0.528775 0.214944 0.128731
0.555492 0.226072 0.135181
0.582713 0.239283 0.143684
0.609933 0.252494 0.152186
0.637154 0.265705 0.160689
0.664374 0.278916 0.169191
0.043704 0.070361 0.068092
0.055449 0.073449 0.069343
0.067194 0.076537 0.070593
0.078940 0.079625 0.071844
0.090685 0.082713 0.073094
0.103964 0.086621 0.074649
0.118393 0.091145 0.076431
0.132823 0.095668 0.078213
0.147252 0.100191 0.079996
0.162336 0.104874 0.081798
0.181350 0.110513 0.083719
0.200363 0.116152 0.085640
0.219376 0.121790 0.087561
0.238390 0.127429 0.089482
0.259689 0.133896 0.091668
0.281902 0.140695 0.093959
0.304115 0.147493 0.096250
0.326329 0.154292 0.098541
0.349208 0.161502 0.101100
0.373751 0.169741 0.104328
0.398295 0.177980 0.107557
0.422838 0.186220 0.110785
0.447382 0.194459 0.114014
0.473145 0.204647 0.118748
0.499112 0.215159 0.123734
0.525078 0.225672 0.128720
0.551045 0.236184 0.133706
0.577042 0.248307 0.140130
0.603080 0.262576 0.148470
0.629117 0.276846 0.156811
0.655155 0.291115 0.165152
0.681193 0.305384 0.173492
0.044736 0.075789 0.070401
0.056986 0.079455 0.071813
0.069237 0.083121 0.073225
0.081487 0.086787 0.074638
0.093738 0.090453 0.076050
0.108561 0.094734 0.077654
0.125313 0.099476 0.079403
0.142066 0.104218 0.081151
0.158818 0.108961 0.082900
0.176014 0.113916 0.084693
0.195868 0.120151 0.086749
0.215723 0.126385 0.088805
0.235578 0.132620 0.090861
0.255432 0.138854 0.092918
0.277381 0.145920 0.095260
0.300167 0.153318 0.097716
0.322953 0.160716 0.100173
0.345739 0.168114 0.102629
0.369049 0.175921 0.105343
0.393667 0.184751 0.108702
0.418285 0.193580 0.112060
0.442904 0.202410 0.115418
0.467522 0.211240 0.118777
0.492793 0.221957 0.123539
0.518172 0.232989 0.128536
0.543552 0.244021 0.133532
0.568931 0.255053 0.138529
0.594040 0.267621 0.144840
0.618788 0.282238 0.152905
0.643536 0.296854 0.160970
0.668284 0.311470 0.169035
0.693032 0.326086 0.177100
0.045673 0.082351 0.072661
0.057650 0.086739 0.074422
0.069626 0.091127 0.076183
0.081603 0.095515 0.077944
0.093579 0.099904 0.079705
0.110149 0.104494 0.081388
0.130164 0.109236 0.083012
0.150179 0.113978 0.084636
0.170193 0.118721 0.086260
0.190269 0.123760 0.087964
0.210709 0.130580 0.090144
0.231149 0.137399 0.092325
0.251589 0.144219 0.094506
0.272028 0.151039 0.096687
0.294366 0.158627 0.099171
0.317464 0.166523 0.101777
0.340561 0.174419 0.104383
0.363659 0.182315 0.106989
0.387148 0.190592 0.109835
0.411617 0.199820 0.113280
0.436085 0.209049 0.116726
0.460554 0.218277 0.120171
0.485023 0.227505 0.123617
0.509632 0.238450 0.128360
0.534265 0.249681 0.133319
0.558897 0.260913 0.138278
0.583530 0.272144 0.143237
0.607625 0.284746 0.149373
0.631003 0.299175 0.157077
0.654381 0.313604 0.164781
0.677760 0.328034 0.172484
0.701138 0.342463 0.180188
0.046611 0.088913 0.074922
0.058313 0.094023 0.077032
0.070016 0.099133 0.079141
0.081718 0.104244 0.081251
0.093421 0.109354 0.083361
0.111737 0.114254 0.085122
0.135015 0.118996 0.086621
0.158292 0.123739 0.088121
0.181569 0.128481 0.089620
0.204524 0.133603 0.091235
0.225549 0.141008 0.093540
0.246574 0.148414 0.095845
0.267599 0.155819 0.098151
0.288624 0.163224 0.100456
0.311352 0.171335 0.103083
0.334761 0.179729 0.105838
0.358169 0.188123 0.108593
0.381578 0.196517 0.111349
0.405247 0.205263 0.114326
0.429566 0.214890 0.117859
0.453886 0.224517 0.121391
0.478205 0.234144 0.124924
0.502524 0.243770 0.128457
0.526472 0.254943 0.133180
0.550357 0.266373 0.138102
0.574243 0.277804 0.143024
0.598128 0.289234 0.147946
0.621209 0.301870 0.153905
0.643218 0.316113 0.161248
0.665227 0.330355 0.168591
0.687235 0.344598 0.175933
0.709244 0.358840 0.183276
0.047548 0.095474 0.077183
0.058977 0.101307 0.079641
0.070405 0.107140 0.082100
0.081834 0.112972 0.084558
0.093263 0.118805 0.087016
0.113326 0.124014 0.088855
0.139865 0.128757 0.090230
0.166405 0.133499 0.091605
0.192944 0.138241 0.092980
0.218779 0.143447 0.094506
0.240389 0.151437 0.096936
0.262000 0.159428 0.099366
0.283610 0.167418 0.101795
0.305220 0.175408 0.104225
0.328338 0.184043 0.106994
0.352057 0.192935 0.109899
0.375777 0.201827 0.112804
0.399497 0.210719 0.115708
0.423346 0.219935 0.118818
0.447516 0.229960 0.122437
0.471686 0.239985 0.126057
0.495856 0.250010 0.129677
0.520026 0.260035 0.133297
0.543311 0.271436 0.138001
0.566450 0.283065 0.142885
0.589588 0.294695 0.147770
0.612726 0.306325 0.152654
0.634794 0.318994 0.158437
0.655433 0.333050 0.165419
0.676072 0.347106 0.172401
0.696711 0.361162 0.179382
0.717350 0.375218 0.186364
0.048525 0.102328 0.079483
0.059735 0.108906 0.082301
0.070945 0.115484 0.085118
0.082154 0.122061 0.087936
0.093364 0.128639 0.090754
0.114853 0.134260 0.092741
0.144052 0.139162 0.094105
0.173251 0.144064 0.095469
0.202449 0.148967 0.096834
0.230716 0.154366 0.098358
0.253392 0.162750 0.100843
0.276067 0.171133 0.103328
0.298743 0.179516 0.105813
0.321419 0.187900 0.108298
0.345033 0.196996 0.111189
0.369021 0.206377 0.114244
0.393010 0.215758 0.117298
0.416998 0.225140 0.120352
0.440986 0.234810 0.123593
0.464973 0.245203 0.127302
0.488960 0.255597 0.131011
0.512947 0.265990 0.134719
0.536933 0.276384 0.138428
0.559543 0.287963 0.143111
0.581924 0.299740 0.147956
0.604304 0.311518 0.152802
0.626685 0.323295 0.157647
0.647740 0.335938 0.163252
0.667027 0.349736 0.169869
0.686314 0.363534 0.176486
0.705601 0.377332 0.183103
0.724889 0.391130 0.189720
0.049738 0.110930 0.082020
0.061060 0.118392 0.085261
0.072382 0.125854 0.088502
0.083704 0.133316 0.091743
0.095026 0.140778 0.094983
0.116015 0.147417 0.097536
0.144255 0.153440 0.099573
0.172495 0.159463 0.101610
0.200734 0.165486 0.103646
0.228743 0.171738 0.105696
0.255366 0.179362 0.107819
0.281989 0.186985 0.109943
0.308612 0.194609 0.112067
0.335235 0.202233 0.114191
0.359985 0.211424 0.117086
0.383986 0.221241 0.120290
0.407987 0.231058 0.123493
0.431988 0.240875 0.126697
0.455875 0.250910 0.130073
0.479475 0.261490 0.133881
0.503076 0.272070 0.137690
0.526677 0.282650 0.141498
0.550278 0.293230 0.145307
0.572128 0.304698 0.149961
0.593687 0.316313 0.154757
0.615246 0.327929 0.159552
0.636804 0.339544 0.164348
0.656856 0.351801 0.169759
0.674898 0.364914 0.175990
0.692940 0.378028 0.182221
0.710982 0.391141 0.188452
0.729024 0.404254 0.194683
0.050951 0.119532 0.084556
0.062385 0.127878 0.088221
0.073819 0.136224 0.091885
0.085253 0.144570 0.095549
0.096687 0.152916 0.099213
0.117176 0.160575 0.102332
0.144458 0.167719 0.105041
0.171739 0.174862 0.107750
0.199020 0.182006 0.110459
0.226771 0.189109 0.113033
0.257341 0.195974 0.114796
0.287911 0.202838 0.116558
0.318481 0.209702 0.118321
0.349051 0.216566 0.120084
0.374937 0.225851 0.122983
0.398951 0.236104 0.126336
0.422964 0.246357 0.129689
0.446978 0.256610 0.133042
0.470763 0.267009 0.136553
0.493978 0.277776 0.140461
0.517192 0.288543 0.144369
0.540407 0.299310 0.148277
0.563622 0.310077 0.152185
0.584713 0.321433 0.156811
0.605450 0.332886 0.161557
0.626187 0.344340 0.166303
0.646924 0.355793 0.171048
0.665972 0.367664 0.176265
0.682769 0.380093 0.182110
0.699566 0.392521 0.187955
0.716363 0.404949 0.193800
0.733160 0.417378 0.199646
0.052164 0.128134 0.087093
0.063710 0.137364 0.091180
0.075256 0.146594 0.095268
0.086802 0.155824 0.099356
0.098348 0.165054 0.103443
0.118338 0.173733 0.107127
0.144660 0.181997 0.110509
0.170983 0.190261 0.113890
0.197305 0.198525 0.117272
0.224798 0.206481 0.120370
0.259315 0.212586 0.121772
0.293832 0.218690 0.123174
0.328349 0.224795 0.124575
0.362866 0.230900 0.125977
0.389890 0.240279 0.128879
0.413916 0.250967 0.132382
0.437942 0.261656 0.135884
0.461967 0.272345 0.139387
0.485651 0.283109 0.143033
0.508480 0.294063 0.147041
0.531309 0.305017 0.151048
0.554138 0.315970 0.155056
0.576966 0.326924 0.159064
0.597298 0.338167 0.163661
0.617213 0.349459 0.168357
0.637128 0.360751 0.173053
0.657043 0.372042 0.177749
0.675088 0.383528 0.182772
0.690640 0.395271 0.188231
0.706192 0.407014 0.193690
0.721744 0.418758 0.199149
0.737296 0.430501 0.204608
0.053377 0.136736 0.089629
0.065036 0.146850 0.094140
0.076694 0.156965 0.098651
0.088352 0.167079 0.103162
0.100010 0.177193 0.107673
0.119500 0.186890 0.111923
0.144863 0.196275 0.115977
0.170227 0.205660 0.120031
0.195590 0.215045 0.124084
0.222825 0.223852 0.127708
0.261289 0.229198 0.128748
0.299754 0.234543 0.129789
0.338218 0.239888 0.130830
0.376682 0.245233 0.131870
0.404842 0.254706 0.134776
0.428880 0.265831 0.138428
0.452919 0.276955 0.142080
0.476957 0.288080 0.145731
0.500540 0.299209 0.149513
0.522982 0.310349 0.153621
0.545425 0.321490 0.157728
0.567868 0.332630 0.161835
0.590311 0.343771 0.165942
0.609883 0.354902 0.170511
0.628976 0.366032 0.175157
0.648069 0.377162 0.179804
0.667163 0.388291 0.184450
0.684205 0.399391 0.189279
0.698511 0.410449 0.194352
0.712818 0.421508 0.199425
0.727125 0.432567 0.204498
0.741431 0.443625 0.209571
0.055260 0.146796 0.092678
0.067235 0.157856 0.097683
0.079210 0.168917 0.102689
0.091184 0.179977 0.107694
0.103159 0.191038 0.112700
0.122501 0.201730 0.117546
0.147368 0.212146 0.122272
0.172235 0.222563 0.126998
0.197103 0.232979 0.131724
0.223932 0.242775 0.136017
0.262537 0.248846 0.137711
0.301142 0.254917 0.139404
0.339747 0.260988 0.141097
0.378351 0.267059 0.142791
0.408352 0.276073 0.145602
0.434911 0.286263 0.148861
0.461470 0.296454 0.152120
0.488028 0.306644 0.155378
0.513298 0.317150 0.158931
0.535346 0.328441 0.163218
0.557394 0.339733 0.167505
0.579442 0.351025 0.171791
0.601490 0.362316 0.176078
0.620377 0.373307 0.180699
0.638738 0.384249 0.185375
0.657098 0.395190 0.190052
0.675459 0.406131 0.194728
0.691644 0.416825 0.199463
0.704928 0.427190 0.204274
0.718211 0.437555 0.209086
0.731495 0.447920 0.213897
0.744779 0.458285 0.218709
0.057411 0.157438 0.095931
0.069784 0.169470 0.101460
0.082157 0.181502 0.106988
0.094530 0.193533 0.112517
0.106903 0.205565 0.118045
0.126238 0.217243 0.123499
0.150794 0.228655 0.128898
0.175350 0.240068 0.134296
0.199906 0.251481 0.139695
0.226271 0.262319 0.144715
0.263494 0.269709 0.147467
0.300717 0.277100 0.150219
0.337939 0.284491 0.152971
0.375162 0.291882 0.155723
0.407285 0.300214 0.158401
0.437367 0.308923 0.161049
0.467450 0.317632 0.163698
0.497532 0.326341 0.166346
0.525206 0.335827 0.169524
0.546855 0.347255 0.174022
0.568505 0.358684 0.178521
0.590154 0.370113 0.183019
0.611803 0.381541 0.187518
0.630036 0.392381 0.192222
0.647699 0.403123 0.196961
0.665363 0.413865 0.201699
0.683026 0.424607 0.206438
0.698412 0.434889 0.211117
0.710762 0.444557 0.215717
0.723112 0.454224 0.220317
0.735462 0.463892 0.224917
0.747812 0.473559 0.229517
0.059561 0.168081 0.099185
0.072333 0.181084 0.105236
0.085104 0.194086 0.111287
0.097876 0.207089 0.117339
0.110648 0.220092 0.123390
0.129975 0.232755 0.129453
0.154220 0.245164 0.135524
0.178465 0.257573 0.141595
0.202709 0.269982 0.147666
0.228611 0.281862 0.153414
0.264451 0.290573 0.157224
0.300292 0.299283 0.161034
0.336132 0.307994 0.164844
0.371973 0.316705 0.168654
0.406217 0.324356 0.171199
0.439824 0.331583 0.173237
0.473430 0.338810 0.175276
0.507036 0.346037 0.177314
0.537113 0.354504 0.180116
0.558364 0.366069 0.184826
0.579615 0.377635 0.189536
0.600866 0.389201 0.194247
0.622117 0.400766 0.198957
0.639695 0.411455 0.203745
0.656661 0.421998 0.208546
0.673627 0.432541 0.213347
0.690593 0.443083 0.218148
0.705180 0.452952 0.222772
0.716596 0.461923 0.227160
0.728013 0.470893 0.231548
0.739429 0.479863 0.235936
0.750845 0.488834 0.240325
0.061712 0.178723 0.102438
0.074882 0.192697 0.109012
0.088052 0.206671 0.115587
0.101222 0.220645 0.122161
0.114392 0.234619 0.128735
0.133712 0.248268 0.135406
0.157646 0.261673 0.142150
0.181579 0.275078 0.148893
0.205513 0.288483 0.155636
0.230950 0.301405 0.162112
0.265408 0.311436 0.166980
0.299866 0.321466 0.171849
0.334325 0.331497 0.176717
0.368783 0.341527 0.181586
0.405150 0.348497 0.183997
0.442280 0.354243 0.185425
0.479410 0.359988 0.186854
0.516540 0.365733 0.188282
0.549020 0.373181 0.190709
0.569872 0.384883 0.195631
0.590725 0.396586 0.200552
0.611578 0.408289 0.205474
0.632430 0.419991 0.210396
0.649354 0.430529 0.215268
0.665622 0.440872 0.220131
0.681891 0.451216 0.224994
0.698160 0.461560 0.229857
0.711948 0.471016 0.234426
0.722431 0.479289 0.238603
0.732913 0.487562 0.242779
0.743395 0.495835 0.246956
0.753878 0.504108 0.251132
0.064288 0.189964 0.105991
0.077938 0.204938 0.113141
0.091588 0.219912 0.120292
0.105239 0.234885 0.127443
0.118889 0.249859 0.134593
0.138302 0.264469 0.141889
0.162038 0.278806 0.149295
0.185774 0.293143 0.156700
0.209510 0.307480 0.164105
0.234610 0.321372 0.171292
0.267889 0.332598 0.177172
0.301168 0.343824 0.183053
0.334447 0.355050 0.188934
0.367726 0.366275 0.194814
0.405246 0.373087 0.197488
0.444463 0.378134 0.198879
0.483679 0.383180 0.200270
0.522896 0.388227 0.201661
0.556973 0.395054 0.204045
0.578203 0.406335 0.208912
0.599433 0.417616 0.213779
0.620662 0.428897 0.218645
0.641892 0.440178 0.223512
0.658333 0.450512 0.228496
0.673975 0.460689 0.233500
0.689618 0.470865 0.238504
0.705260 0.481041 0.243507
0.718343 0.490140 0.248107
0.728013 0.497801 0.252168
0.737682 0.505462 0.256229
0.747351 0.513123 0.260290
0.757021 0.520785 0.264351
0.067927 0.202702 0.110292
0.082262 0.218746 0.118152
0.096597 0.234791 0.126013
0.110932 0.250836 0.133873
0.125268 0.266880 0.141733
0.145024 0.282390 0.149697
0.168848 0.297499 0.157737
0.192671 0.312608 0.165777
0.216494 0.327717 0.173817
0.241572 0.342397 0.181676
0.274178 0.354507 0.188453
0.306785 0.366617 0.195231
0.339392 0.378727 0.202008
0.371999 0.390837 0.208785
0.408250 0.398800 0.212711
0.445960 0.405104 0.215496
0.483670 0.411408 0.218282
0.521380 0.417712 0.221068
0.555044 0.424918 0.224241
0.578589 0.434381 0.228386
0.602135 0.443844 0.232530
0.625680 0.453307 0.236675
0.649226 0.462770 0.240820
0.665613 0.472770 0.245989
0.680808 0.482859 0.251329
0.696002 0.492949 0.256668
0.711196 0.503038 0.262008
0.723804 0.511916 0.266853
0.732963 0.519178 0.271039
0.742122 0.526441 0.275224
0.751281 0.533704 0.279410
0.760440 0.540967 0.283595
0.071566 0.215440 0.114593
0.086586 0.232555 0.123163
0.101606 0.249670 0.131733
0.116626 0.266786 0.140303
0.131646 0.283901 0.148873
0.151746 0.300311 0.157504
0.175657 0.316192 0.166179
0.199567 0.332073 0.174854
0.223477 0.347954 0.183529
0.248534 0.363422 0.192061
0.280468 0.376416 0.199734
0.312403 0.389410 0.207408
0.344337 0.402404 0.215082
0.376271 0.415398 0.222755
0.411255 0.424512 0.227934
0.447458 0.432073 0.232114
0.483662 0.439635 0.236294
0.519865 0.447196 0.240474
0.553114 0.454782 0.244438
0.578975 0.462427 0.247860
0.604837 0.470072 0.251282
0.630698 0.477717 0.254705
0.656560 0.485363 0.258127
0.672894 0.495028 0.263481
0.687640 0.505030 0.269157
0.702386 0.515032 0.274833
0.717132 0.525034 0.280509
0.729265 0.533691 0.285600
0.737913 0.540556 0.289910
0.746562 0.547420 0.294220
0.755210 0.554284 0.298530
0.763858 0.561149 0.302840
0.075206 0.228178 0.118894
0.090911 0.246364 0.128174
0.106615 0.264550 0.137454
0.122320 0.282736 0.146734
0.138025 0.300922 0.156013
0.158468 0.318232 0.165311
0.182466 0.334885 0.174621
0.206463 0.351538 0.183931
0.230461 0.368191 0.193241
0.255496 0.384447 0.202445
0.286758 0.398325 0.211015
0.318020 0.412203 0.219586
0.349282 0.426081 0.228156
0.380544 0.439959 0.236726
0.414259 0.450224 0.243156
0.448956 0.459043 0.248731
0.483653 0.467862 0.254306
0.518349 0.476681 0.259880
0.551184 0.484646 0.264634
0.579361 0.490473 0.267334
0.607539 0.496300 0.270034
0.635716 0.502128 0.272734
0.663894 0.507955 0.275434
0.680174 0.517286 0.280974
0.694472 0.527201 0.286986
0.708770 0.537116 0.292998
0.723068 0.547030 0.299010
0.734726 0.555467 0.304346
0.742863 0.561933 0.308781
0.751001 0.568399 0.313215
0.759139 0.574865 0.317650
0.767277 0.581330 0.322084
0.078845 0.240915 0.123195
0.095235 0.260172 0.133185
0.111624 0.279429 0.143174
0.128014 0.298686 0.153164
0.144404 0.317943 0.163153
0.165190 0.336153 0.173118
0.189275 0.353578 0.183063
0.213360 0.371003 0.193008
0.237444 0.388428 0.202953
0.262458 0.405473 0.212830
0.293048 0.420235 0.222296
0.323637 0.434997 0.231763
0.354227 0.449759 0.241230
0.384816 0.464521 0.250696
0.417264 0.475936 0.258379
0.450454 0.486013 0.265348
0.483644 0.496090 0.272318
0.516834 0.506166 0.279287
0.549254 0.514510 0.284830
0.579747 0.518519 0.286808
0.610241 0.522528 0.288786
0.640734 0.526538 0.290764
0.671228 0.530547 0.292742
0.687455 0.539544 0.298466
0.701304 0.549371 0.304815
0.715154 0.559199 0.311163
0.729004 0.569027 0.317511
0.740186 0.577243 0.323093
0.747814 0.583310 0.327652
0.755441 0.589378 0.332211
0.763069 0.595445 0.336770
0.770696 0.601512 0.341329
0.083761 0.254835 0.128252
0.101123 0.275461 0.139261
0.118486 0.296088 0.150270
0.135849 0.316715 0.161279
0.153211 0.337341 0.172288
0.174605 0.356427 0.183033
0.199022 0.374357 0.193581
0.223439 0.392287 0.204130
0.247857 0.410217 0.214678
0.273108 0.427745 0.225166
0.303367 0.442857 0.235294
0.333626 0.457970 0.245423
0.363885 0.473082 0.255551
0.394143 0.488195 0.265679
0.425793 0.500159 0.274303
0.458000 0.510863 0.282325
0.490206 0.521568 0.290348
0.522413 0.532273 0.298370
0.553883 0.541237 0.305014
0.583512 0.545851 0.308212
0.613141 0.550465 0.311410
0.642770 0.555080 0.314609
0.672399 0.559694 0.317807
0.689088 0.567623 0.323225
0.703621 0.576104 0.329013
0.718153 0.584585 0.334801
0.732686 0.593066 0.340589
0.744191 0.600479 0.346087
0.751660 0.606468 0.351198
0.759129 0.612458 0.356308
0.766598 0.618447 0.361418
0.774068 0.624436 0.366529
0.088889 0.268951 0.133436
0.107273 0.290997 0.145515
0.125656 0.313043 0.157595
0.144040 0.335089 0.169675
0.162423 0.357136 0.181754
0.184468 0.377093 0.193300
0.209259 0.395484 0.204446
0.234050 0.413874 0.215592
0.258841 0.432265 0.226738
0.284373 0.450225 0.237827
0.314358 0.465599 0.248578
0.344343 0.480973 0.259329
0.374328 0.496347 0.270080
0.404313 0.511721 0.280831
0.435244 0.524133 0.290344
0.466554 0.535361 0.299363
0.497864 0.546588 0.308381
0.529174 0.557816 0.317399
0.559605 0.567442 0.325196
0.587840 0.573065 0.329938
0.616074 0.578687 0.334680
0.644308 0.584310 0.339423
0.672543 0.589933 0.344165
0.689780 0.596672 0.349195
0.705184 0.603596 0.354274
0.720588 0.610521 0.359352
0.735993 0.617446 0.364430
0.747953 0.623959 0.369789
0.755323 0.629923 0.375522
0.762692 0.635888 0.381255
0.770062 0.641852 0.386988
0.777431 0.647816 0.392721
0.094017 0.283067 0.138619
0.113422 0.306533 0.151770
0.132826 0.329999 0.164920
0.152231 0.353464 0.178071
0.171636 0.376930 0.191221
0.194332 0.397759 0.203567
0.219496 0.416610 0.215311
0.244660 0.435462 0.227054
0.269824 0.454313 0.238798
0.295638 0.472705 0.250488
0.325349 0.488341 0.261862
0.355060 0.503976 0.273235
0.384771 0.519611 0.284609
0.414482 0.535247 0.295982
0.444694 0.548107 0.306385
0.475108 0.559858 0.316400
0.505521 0.571608 0.326414
0.535935 0.583359 0.336429
0.565327 0.593647 0.345378
0.592167 0.600278 0.351664
0.619007 0.606910 0.357950
0.645847 0.613541 0.364236
0.672687 0.620172 0.370523
0.690472 0.625721 0.375165
0.706748 0.631089 0.379534
0.723024 0.636457 0.383903
0.739299 0.641826 0.388271
0.751715 0.647439 0.393491
0.758985 0.653378 0.399847
0.766255 0.659318 0.406203
0.773525 0.665257 0.412558
0.780795 0.671196 0.418914
0.099145 0.297184 0.143802
0.119571 0.322069 0.158024
0.139997 0.346954 0.172245
0.160422 0.371839 0.186466
0.180848 0.396724 0.200688
0.204195 0.418425 0.213835
0.229733 0.437737 0.226176
0.255271 0.457049 0.238517
0.280808 0.476361 0.250858
0.306903 0.495185 0.263150
0.336340 0.511082 0.275146
0.365777 0.526979 0.287142
0.395214 0.542876 0.299138
0.424651 0.558773 0.311134
0.454145 0.572082 0.322426
0.483662 0.584355 0.333437
0.513179 0.596629 0.344447
0.542696 0.608902 0.355458
0.571050 0.619852 0.365560
0.596495 0.627492 0.373390
0.621940 0.635132 0.381220
0.647386 0.642771 0.389050
0.672831 0.650411 0.396881
0.691164 0.654770 0.401135
0.708311 0.658582 0.404794
0.725459 0.662394 0.408453
0.742606 0.666206 0.412112
0.755478 0.670919 0.417194
0.762648 0.676833 0.424172
0.769818 0.682748 0.431150
0.776988 0.688662 0.438128
0.784158 0.694576 0.445106
0.104297 0.310520 0.148844
0.125952 0.337198 0.164419
0.147607 0.363876 0.179994
0.169262 0.390554 0.195569
0.190916 0.417233 0.211144
0.215058 0.439928 0.225215
0.241066 0.459637 0.238160
0.267073 0.479346 0.251104
0.293081 0.499055 0.264048
0.319551 0.518214 0.276921
0.348800 0.534073 0.289369
0.378048 0.549933 0.301817
0.407296 0.565792 0.314265
0.436545 0.581652 0.326712
0.465432 0.595026 0.338647
0.494175 0.607406 0.350376
0.522919 0.619787 0.362106
0.551662 0.632167 0.373835
0.579116 0.643351 0.384804
0.603348 0.651546 0.393874
0.627581 0.659741 0.402944
0.651813 0.667936 0.412014
0.676045 0.676131 0.421084
